X: 1
T: Mazurca Di Zavattarello
M: 3/4
L: 1/8
R: mazurka
K: Dmaj
|: A |
d>A B>A F>G | A2 A2- A>A | d>A B>A F>A | G2 G2- G>B |
e>d c>B A>B | c2 c>E c>E | B2 B>E B>E | A2 A2- A>A |
d>A B>A F>G | A2 A2- A>A | de/d/ c>d e>d | B2 B2- B>c |
e>d c>e d>c | d>A F>A B>A | c>B A>G F>E | D2 D2 F>A |
f4 F>A | d4 F>A | d2 ^d2 e2 | c4 E>A |
e4 E>A | c4 E>A | c>B A>^G B>=G | F2- F>D F>A |
f4 F>A | d4 F>A | d2 ^d2 e2 | B6 |
e>d c>e d>c | d>A F>A B>A | c>B (3ABA (3GFE | D2 D2- D :|
K: Gmaj
|: d |
g>d e>d B>e | d2 d>G (3Bcd | g>d e>d B>d | c2 c2- c>e |
a>g f>e d>e | f2 f>A f>A | e>A e>A e>A | d2 d>A (3Bcd |
g>d e>d B>e | d2 d2- d>f | g2 f>g a>g | e2- e>A c>e |
a>g f>a g>f | g>d (3Bcd e>d | (3fed c>A F>A | G2 G2 (3Bcd |
b2 b2 (3Bcd | g2 g2 B>d | g>A ^g>A a>A | f2 f2 (3Ace |
a2 a2 (3Acd | f2 f2 A>d | f>e d>A e>c | B2- B>G (3Bcd |
b2 b2 B>d | g2 g2 (3Bcd | g2 f2 =f2 | e2- e>A c>e |
a>g f>a g>f | g>d (3Bcd (3Bcd | (3fed (3cBA (3FGA | G2 G2- G :|
